X: 283
T: While Gazing on the Moonlight
B: O'Neill's 283
N: "Animated"
Z: 1997 by John Chambers <jc@trillian.mit.edu>
M: 6/8
L: 1/8
K:Dm
F \
|F2F F2G|F3 E2E|D2D E2F|G2F E2A \
|A2G F2E|D3 D2c|d2A A2G|GF2E D2c|
|d3 A2c|d3 A2c|d2f e2d|c2B A2B \
|c3 G2B|c3 G2B|c2e d2c|B2A G2G|
|d2c d2A|c2B c2A|d2f e2d|c2B A2G \
|F2F F2F|E2E E2c|d2A A2G|F2E D2||
